X: 20254
M: C
L: 1/8
K: F
c2 |\
fefg afdB | cdef gabg | babg agaf | ecfd cdec |\
fefg afdB | cAdf efed | cABd cAGB | A2F2F2 :|
|: c2 |\


